austria/municipalities/41320.svg

<?xml version="1.0" encoding="UTF-8"?>
<!DOCTYPE svg PUBLIC "-//W3C//DTD SVG 1.1//EN" "http://www.w3.org/Graphics/SVG/1.1/DTD/svg11.dtd">
<svg xmlns="http://www.w3.org/2000/svg" version="1.1" width="166px" height="207px" style="shape-rendering:geometricPrecision; text-rendering:geometricPrecision; image-rendering:optimizeQuality; fill-rule:evenodd; clip-rule:evenodd" xmlns:xlink="http://www.w3.org/1999/xlink">
<g><path style="opacity:1" fill="#000000" d="M -0.5,-0.5 C 54.8333,-0.5 110.167,-0.5 165.5,-0.5C 165.5,44.1667 165.5,88.8333 165.5,133.5C 157.475,172.524 134.142,196.858 95.5,206.5C 86.8333,206.5 78.1667,206.5 69.5,206.5C 30.0061,196.67 6.67281,171.67 -0.5,131.5C -0.5,87.5 -0.5,43.5 -0.5,-0.5 Z"/></g>
<g><path style="opacity:1" fill="#fefffe" d="M 55.5,89.5 C 56.7829,91.6064 57.6162,93.9398 58,96.5C 60.0871,97.8341 61.5871,99.6674 62.5,102C 67.5767,102.552 72.5767,102.552 77.5,102C 85.78,112.282 93.28,123.116 100,134.5C 103.736,138.012 107.736,138.345 112,135.5C 112.667,132.833 112.667,130.167 112,127.5C 108.28,120.449 103.78,113.949 98.5,108C 111.767,103.074 125.434,99.7405 139.5,98C 146.412,93.9802 153.578,90.4802 161,87.5C 161.667,103.833 161.667,120.167 161,136.5C 159.482,145.939 156.149,154.605 151,162.5C 140.316,153.185 128.816,152.185 116.5,159.5C 93.1523,137.467 68.4856,135.801 42.5,154.5C 31.464,148.878 20.7973,149.545 10.5,156.5C 7.46599,149.43 5.29933,142.096 4,134.5C 3.50001,90.8346 3.33334,47.1679 3.5,3.5C 56.1667,3.5 108.833,3.5 161.5,3.5C 161.667,18.5037 161.5,33.5037 161,48.5C 155.218,54.3114 148.385,58.4781 140.5,61C 135.081,64.1262 129.914,67.6262 125,71.5C 118.488,70.4608 112.488,71.7942 107,75.5C 104.159,73.4963 100.993,72.9963 97.5,74C 95.0039,75.5541 92.8372,77.3874 91,79.5C 86.5106,76.3481 82.0106,73.1814 77.5,70C 74.1235,68.9302 70.7902,67.7635 67.5,66.5C 64,61.5 60.5,56.5 57,51.5C 54.9327,48.93 52.4327,46.93 49.5,45.5C 44.2003,35.0771 37.5337,25.5771 29.5,17C 22.3333,16.1667 19.1667,19.3333 20,26.5C 25.7125,34.0905 31.5458,41.5905 37.5,49C 38.8721,49.4017 40.2054,49.9017 41.5,50.5C 42.3142,52.7662 42.8142,55.0995 43,57.5C 47.5507,62.7162 51.7173,68.2162 55.5,74C 53.2304,76.0608 52.7304,78.2275 54,80.5C 54.1805,83.6946 54.6805,86.6946 55.5,89.5 Z"/></g>
<g><path style="opacity:1" fill="#cb0000" d="M 24.5,18.5 C 25.8734,18.3433 27.2068,18.51 28.5,19C 32.689,23.2211 36.5223,27.7211 40,32.5C 39.6791,36.353 37.5124,39.0197 33.5,40.5C 29.4382,36.0569 25.6049,31.3903 22,26.5C 21.0228,23.1827 21.8562,20.516 24.5,18.5 Z"/></g>
<g><path style="opacity:1" fill="#cb0000" d="M 41.5,36.5 C 44.0704,37.484 44.0704,38.6507 41.5,40C 39.2172,42.19 36.5505,42.8567 33.5,42C 36.7556,40.884 39.4223,39.0507 41.5,36.5 Z"/></g>
<g><path style="opacity:1" fill="#cb0000" d="M 42.5,40.5 C 43.8221,40.33 44.9887,40.6634 46,41.5C 45.6206,45.1223 47.1206,47.289 50.5,48C 53.206,50.3706 55.5394,53.0372 57.5,56C 55.355,58.574 52.6883,60.4074 49.5,61.5C 45.2924,58.662 43.4591,54.662 44,49.5C 40.844,48.5628 38.0106,47.0628 35.5,45C 38.5469,44.4842 40.8802,42.9842 42.5,40.5 Z"/></g>
<g><path style="opacity:1" fill="#cb0000" d="M 58.5,57.5 C 59.6527,58.3132 59.6527,59.3132 58.5,60.5C 56.6096,62.5776 54.2762,63.9109 51.5,64.5C 50.6919,64.1924 50.0253,63.6924 49.5,63C 53.2004,62.1572 56.2004,60.3239 58.5,57.5 Z"/></g>
<g><path style="opacity:1" fill="#cb0000" d="M 60.5,60.5 C 62.1482,62.4293 63.8149,64.4293 65.5,66.5C 62.5719,67.4841 59.5719,67.8174 56.5,67.5C 56.6495,68.552 56.4828,69.552 56,70.5C 54.647,69.3147 53.4803,67.9814 52.5,66.5C 55.9416,65.4547 58.6083,63.4547 60.5,60.5 Z"/></g>
<g><path style="opacity:1" fill="#fefffe" d="M 58.5,69.5 C 66.323,71.0775 66.323,72.0775 58.5,72.5C 58.5,71.5 58.5,70.5 58.5,69.5 Z"/></g>
<g><path style="opacity:1" fill="#fefffe" d="M 65.5,70.5 C 67.6282,69.3709 69.9615,69.2042 72.5,70C 75.1315,71.3267 77.7981,72.6601 80.5,74C 84.7448,79.6491 90.4114,82.1491 97.5,81.5C 98.8509,87.1905 98.6842,92.8571 97,98.5C 95.1862,99.7596 93.3529,99.7596 91.5,98.5C 90.289,96.5781 88.9557,94.7448 87.5,93C 88.624,92.7508 89.624,92.2508 90.5,91.5C 84.5678,91.2291 81.2345,88.2291 80.5,82.5C 75.2237,80.689 69.8904,79.189 64.5,78C 58.7684,74.087 59.4351,72.587 66.5,73.5C 66.7373,72.209 66.404,71.209 65.5,70.5 Z"/></g>
<g><path style="opacity:1" fill="#fefffe" d="M 57.5,73.5 C 60.1748,75.6894 61.8415,78.5227 62.5,82C 63.4491,82.6172 64.2825,82.4506 65,81.5C 66.9412,85.5537 67.7746,85.2203 67.5,80.5C 69.3464,80.2222 70.6798,80.8888 71.5,82.5C 70.5197,83.9814 69.353,85.3147 68,86.5C 65.2595,85.7178 62.4262,85.2178 59.5,85C 54.7249,81.4631 54.0582,77.6297 57.5,73.5 Z"/></g>
<g><path style="opacity:1" fill="#fefffe" d="M 108.5,75.5 C 109.222,75.9175 109.722,76.5842 110,77.5C 110.667,83.1667 110.667,88.8333 110,94.5C 109.73,97.3617 108.896,100.028 107.5,102.5C 107.167,102.333 106.833,102.167 106.5,102C 110.068,94.1275 110.401,86.1275 107.5,78C 108.252,77.3292 108.586,76.4959 108.5,75.5 Z"/></g>
<g><path style="opacity:1" fill="#cb0000" d="M 73.5,84.5 C 75.1252,83.6749 76.7918,84.0082 78.5,85.5C 80.2754,89.4769 83.1087,92.4769 87,94.5C 91.6233,100.913 96.1233,107.413 100.5,114C 98.444,116.444 95.944,118.277 93,119.5C 88.0448,113.089 83.2115,106.589 78.5,100C 79.4112,96.9355 79.4112,94.1021 78.5,91.5C 77.5469,88.57 75.8802,86.2367 73.5,84.5 Z"/></g>
<g><path style="opacity:1" fill="#fefffe" d="M 55.5,89.5 C 55.3118,87.8967 55.8118,86.5634 57,85.5C 60.6599,87.0246 64.4932,88.0246 68.5,88.5C 70.588,85.2191 72.588,85.0524 74.5,88C 71.1283,89.9416 67.4616,91.1083 63.5,91.5C 61.8333,90.1667 60.1667,90.1667 58.5,91.5C 57.4822,90.8075 56.4822,90.1408 55.5,89.5 Z"/></g>
<g><path style="opacity:1" fill="#fefffe" d="M 73.5,90.5 C 75.2252,90.8425 75.7252,91.8425 75,93.5C 73.4878,94.2567 72.1545,95.2567 71,96.5C 66.7881,96.8805 62.6214,96.3805 58.5,95C 60.0588,93.3693 62.0588,92.536 64.5,92.5C 66.6413,92.6132 68.4747,93.2799 70,94.5C 71.0319,92.9733 72.1986,91.64 73.5,90.5 Z"/></g>
<g><path style="opacity:1" fill="#fefffe" d="M 75.5,95.5 C 77.9815,96.6962 77.9815,98.1962 75.5,100C 71.0163,101.945 66.6829,101.778 62.5,99.5C 65.9958,97.9932 69.4958,97.6599 73,98.5C 73.6979,97.3094 74.5313,96.3094 75.5,95.5 Z"/></g>
<g><path style="opacity:1" fill="#fefffe" d="M 93.5,101.5 C 94.3864,100.224 95.3864,100.224 96.5,101.5C 95.5754,102.562 94.5754,102.562 93.5,101.5 Z"/></g>
<g><path style="opacity:1" fill="#cb0000" d="M 101.5,115.5 C 102.791,116.542 102.791,117.708 101.5,119C 99.2172,121.19 96.5505,121.857 93.5,121C 97.0414,120.335 99.708,118.502 101.5,115.5 Z"/></g>
<g><path style="opacity:1" fill="#cb0000" d="M 103.5,118.5 C 104.478,118.811 105.145,119.478 105.5,120.5C 102.919,124.136 99.5859,125.47 95.5,124.5C 98.593,122.966 101.26,120.966 103.5,118.5 Z"/></g>
<g><path style="opacity:1" fill="#cb0000" d="M 105.5,122.5 C 107.624,123.031 109.124,124.365 110,126.5C 112.732,133.222 110.565,136.055 103.5,135C 101.126,132.961 99.1255,130.628 97.5,128C 100.721,126.896 103.388,125.063 105.5,122.5 Z"/></g>
<g><path style="opacity:1" fill="#fefffe" d="M -0.5,131.5 C 6.67281,171.67 30.0061,196.67 69.5,206.5C 46.1667,206.5 22.8333,206.5 -0.5,206.5C -0.5,181.5 -0.5,156.5 -0.5,131.5 Z"/></g>
<g><path style="opacity:1" fill="#fefffe" d="M 165.5,133.5 C 165.5,157.833 165.5,182.167 165.5,206.5C 142.167,206.5 118.833,206.5 95.5,206.5C 134.142,196.858 157.475,172.524 165.5,133.5 Z"/></g>
<g><path style="opacity:1" fill="#006632" d="M 70.5,143.5 C 74.9671,143.133 79.3004,143.633 83.5,145C 65.7856,157.045 50.2856,171.545 37,188.5C 34.0746,186.286 31.2413,183.953 28.5,181.5C 26.876,180.131 26.376,178.464 27,176.5C 34.8212,167.712 42.9878,159.212 51.5,151C 57.5702,147.593 63.9035,145.093 70.5,143.5 Z"/></g>
<g><path style="opacity:1" fill="#fe9900" d="M 87.5,144.5 C 92.4195,145.641 97.0862,147.474 101.5,150C 82.3287,162.5 65.662,177.834 51.5,196C 47.3492,195.154 43.5159,193.321 40,190.5C 39.6848,189.092 40.0181,187.759 41,186.5C 54.5274,170.13 70.0274,156.13 87.5,144.5 Z"/></g>
<g><path style="opacity:1" fill="#006632" d="M 71.5,198.5 C 70.0242,199.733 68.3575,200.733 66.5,201.5C 61.8875,200.685 57.5541,199.185 53.5,197C 67.2184,178.442 83.8851,163.275 103.5,151.5C 106.938,153.435 109.938,155.935 112.5,159C 96.0252,169.309 82.3585,182.476 71.5,198.5 Z"/></g>
<g><path style="opacity:1" fill="#006632" d="M 25.5,152.5 C 26.8734,152.343 28.2068,152.51 29.5,153C 25,157.5 20.5,162 16,166.5C 14.8773,163.751 13.3773,161.251 11.5,159C 15.6393,155.427 20.306,153.26 25.5,152.5 Z"/></g>
<g><path style="opacity:1" fill="#fe9900" d="M 31.5,153.5 C 35.5115,153.502 39.1781,154.668 42.5,157C 36.6558,163.676 30.6558,170.176 24.5,176.5C 21.4503,174.451 19.117,171.784 17.5,168.5C 21.951,163.236 26.6176,158.236 31.5,153.5 Z"/></g>
<g><path style="opacity:1" fill="#fe9900" d="M 71.5,198.5 C 83.9343,184.064 97.9343,171.397 113.5,160.5C 114.478,160.977 115.311,161.643 116,162.5C 123.853,156.233 132.353,155.066 141.5,159C 121.175,169.526 103.842,183.859 89.5,202C 82.8333,202.667 76.1667,202.667 69.5,202C 70.8228,201.184 71.4894,200.017 71.5,198.5 Z"/></g>
<g><path style="opacity:1" fill="#006632" d="M 141.5,160.5 C 150.333,160.445 152.167,163.779 147,170.5C 138.203,181.288 127.703,189.788 115.5,196C 107.838,199.582 99.8376,201.582 91.5,202C 101.986,190.425 113.319,179.759 125.5,170C 131.094,167.046 136.428,163.879 141.5,160.5 Z"/></g>
</svg>

<svg xmlns="http://www.w3.org/2000/svg" width="166" height="207" style="shape-rendering:geometricPrecision;text-rendering:geometricPrecision;image-rendering:optimizeQuality;fill-rule:evenodd;clip-rule:evenodd"><path style="opacity:1" d="M-.5-.5h166v134c-8.025 39.024-31.358 63.358-70 73h-26c-39.494-9.83-62.827-34.83-70-75V-.5z"/><path style="opacity:1" fill="#fefffe" d="M55.5 89.5c1.283 2.106 2.116 4.44 2.5 7 2.087 1.334 3.587 3.167 4.5 5.5 5.077.552 10.077.552 15 0a273.061 273.061 0 0 1 22.5 32.5c3.736 3.512 7.736 3.845 12 1a16.242 16.242 0 0 0 0-8A98.531 98.531 0 0 0 98.5 108a181.385 181.385 0 0 1 41-10A165.019 165.019 0 0 1 161 87.5a600.2 600.2 0 0 1 0 49c-1.518 9.439-4.851 18.105-10 26-10.684-9.315-22.184-10.315-34.5-3-23.348-22.033-48.014-23.699-74-5-11.036-5.622-21.703-4.955-32 2a97.115 97.115 0 0 1-6.5-22c-.5-43.665-.667-87.332-.5-131h158c.167 15.004 0 30.004-.5 45-5.782 5.811-12.615 9.978-20.5 12.5A129.67 129.67 0 0 0 125 71.5c-6.512-1.04-12.512.294-18 4-2.841-2.004-6.007-2.504-9.5-1.5-2.496 1.554-4.663 3.387-6.5 5.5-4.49-3.152-8.99-6.319-13.5-9.5a177.089 177.089 0 0 1-10-3.5L57 51.5a21.76 21.76 0 0 0-7.5-6 123.134 123.134 0 0 0-20-28.5c-7.167-.833-10.333 2.333-9.5 9.5A897.124 897.124 0 0 0 37.5 49a28.83 28.83 0 0 1 4 1.5 26.706 26.706 0 0 1 1.5 7A149.756 149.756 0 0 1 55.5 74c-2.27 2.06-2.77 4.228-1.5 6.5.18 3.195.68 6.195 1.5 9z"/><path style="opacity:1" fill="#cb0000" d="M24.5 18.5a8.434 8.434 0 0 1 4 .5A116.24 116.24 0 0 1 40 32.5c-.32 3.853-2.488 6.52-6.5 8a171.91 171.91 0 0 1-11.5-14c-.977-3.317-.144-5.984 2.5-8zM41.5 36.5c2.57.984 2.57 2.15 0 3.5-2.283 2.19-4.95 2.857-8 2 3.256-1.116 5.922-2.95 8-5.5zM42.5 40.5c1.322-.17 2.489.163 3.5 1-.38 3.622 1.12 5.789 4.5 6.5a39.788 39.788 0 0 1 7 8c-2.145 2.574-4.812 4.407-8 5.5-4.208-2.838-6.04-6.838-5.5-12a24.02 24.02 0 0 1-8.5-4.5c3.047-.516 5.38-2.016 7-4.5zM58.5 57.5c1.153.813 1.153 1.813 0 3-1.89 2.078-4.224 3.41-7 4a4.452 4.452 0 0 1-2-1.5c3.7-.843 6.7-2.676 9-5.5zM60.5 60.5c1.648 1.93 3.315 3.93 5 6a21.12 21.12 0 0 1-9 1 4.932 4.932 0 0 1-.5 3 19.894 19.894 0 0 1-3.5-4c3.442-1.045 6.108-3.045 8-6z"/><path style="opacity:1" fill="#fefffe" d="M58.5 69.5c7.823 1.578 7.823 2.578 0 3v-3z"/><path style="opacity:1" fill="#fefffe" d="M65.5 70.5c2.128-1.13 4.462-1.296 7-.5 2.632 1.327 5.298 2.66 8 4 4.245 5.65 9.911 8.15 17 7.5 1.35 5.69 1.184 11.357-.5 17-1.814 1.26-3.647 1.26-5.5 0a51.095 51.095 0 0 0-4-5.5 6.807 6.807 0 0 0 3-1.5c-5.932-.27-9.266-3.27-10-9a146.36 146.36 0 0 0-16-4.5c-5.732-3.913-5.065-5.413 2-4.5.237-1.291-.096-2.291-1-3z"/><path style="opacity:1" fill="#fefffe" d="M57.5 73.5c2.675 2.19 4.342 5.023 5 8.5.95.617 1.782.45 2.5-.5 1.941 4.054 2.775 3.72 2.5-1 1.846-.278 3.18.389 4 2a19.894 19.894 0 0 1-3.5 4 42.336 42.336 0 0 0-8.5-1.5c-4.775-3.537-5.442-7.37-2-11.5zM108.5 75.5c.722.418 1.222 1.084 1.5 2a72.464 72.464 0 0 1 0 17 19.885 19.885 0 0 1-2.5 8l-1-.5c3.568-7.873 3.901-15.873 1-24 .752-.67 1.086-1.504 1-2.5z"/><path style="opacity:1" fill="#cb0000" d="M73.5 84.5c1.625-.825 3.292-.492 5 1 1.775 3.977 4.609 6.977 8.5 9a621.339 621.339 0 0 1 13.5 19.5 19.381 19.381 0 0 1-7.5 5.5A652.312 652.312 0 0 1 78.5 100c.911-3.064.911-5.898 0-8.5-.953-2.93-2.62-5.263-5-7z"/><path style="opacity:1" fill="#fefffe" d="M55.5 89.5c-.188-1.603.312-2.937 1.5-4a42.9 42.9 0 0 0 11.5 3c2.088-3.28 4.088-3.448 6-.5-3.372 1.942-7.038 3.108-11 3.5-1.667-1.333-3.333-1.333-5 0a186.2 186.2 0 0 0-3-2zM73.5 90.5c1.725.343 2.225 1.343 1.5 3a13.912 13.912 0 0 0-4 3c-4.212.38-8.379-.12-12.5-1.5 1.559-1.63 3.559-2.464 6-2.5 2.141.113 3.975.78 5.5 2a20.665 20.665 0 0 1 3.5-4zM75.5 95.5c2.481 1.196 2.481 2.696 0 4.5-4.484 1.945-8.817 1.778-13-.5 3.496-1.507 6.996-1.84 10.5-1 .698-1.19 1.531-2.19 2.5-3zM93.5 101.5c.886-1.276 1.886-1.276 3 0-.925 1.062-1.925 1.062-3 0z"/><path style="opacity:1" fill="#cb0000" d="M101.5 115.5c1.291 1.042 1.291 2.208 0 3.5-2.283 2.19-4.95 2.857-8 2 3.541-.665 6.208-2.498 8-5.5zM103.5 118.5c.978.311 1.645.978 2 2-2.581 3.636-5.914 4.97-10 4 3.093-1.534 5.76-3.534 8-6zM105.5 122.5c2.124.531 3.624 1.865 4.5 4 2.732 6.722.565 9.555-6.5 8.5a29.952 29.952 0 0 1-6-7c3.221-1.104 5.888-2.937 8-5.5z"/><path style="opacity:1" fill="#fefffe" d="M-.5 131.5c7.173 40.17 30.506 65.17 70 75h-70v-75zM165.5 133.5v73h-70c38.642-9.642 61.975-33.976 70-73z"/><path style="opacity:1" fill="#006632" d="M70.5 143.5c4.467-.367 8.8.133 13 1.5-17.714 12.045-33.214 26.545-46.5 43.5a134.097 134.097 0 0 1-8.5-7c-1.624-1.369-2.124-3.036-1.5-5A464.683 464.683 0 0 1 51.5 151c6.07-3.407 12.404-5.907 19-7.5z"/><path style="opacity:1" fill="#fe9900" d="M87.5 144.5a51.44 51.44 0 0 1 14 5.5c-19.171 12.5-35.838 27.834-50 46-4.15-.846-7.984-2.679-11.5-5.5-.315-1.408.018-2.741 1-4 13.527-16.37 29.027-30.37 46.5-42z"/><path style="opacity:1" fill="#006632" d="M71.5 198.5a19.126 19.126 0 0 1-5 3 42.978 42.978 0 0 1-13-4.5c13.718-18.558 30.385-33.725 50-45.5a32.285 32.285 0 0 1 9 7.5c-16.475 10.309-30.141 23.476-41 39.5zM25.5 152.5a8.43 8.43 0 0 1 4 .5L16 166.5a28.4 28.4 0 0 0-4.5-7.5c4.14-3.573 8.806-5.74 14-6.5z"/><path style="opacity:1" fill="#fe9900" d="M31.5 153.5c4.011.002 7.678 1.168 11 3.5a501.99 501.99 0 0 1-18 19.5c-3.05-2.049-5.383-4.716-7-8a207.828 207.828 0 0 1 14-15zM71.5 198.5a227.19 227.19 0 0 1 42-38 7.248 7.248 0 0 1 2.5 2c7.853-6.267 16.353-7.434 25.5-3.5-20.325 10.526-37.658 24.859-52 43a100.2 100.2 0 0 1-20 0c1.323-.816 1.99-1.983 2-3.5z"/><path style="opacity:1" fill="#006632" d="M141.5 160.5c8.833-.055 10.667 3.279 5.5 10-8.797 10.788-19.297 19.288-31.5 25.5-7.662 3.582-15.662 5.582-24 6a292.992 292.992 0 0 1 34-32 182.741 182.741 0 0 0 16-9.5z"/></svg>
